X: 186
T: Tom Ward's Downfall
R: reel
M: 4/4
L: 1/8
K: Gmaj
BGGA GEDG|EDEG A2GE|DEGA ~B3d|ed~d2(3Bcd gd|
BG~G2 GEDG|~E3G AEGE|DEGA B2Bd|eddc BG~G2:|
dggf gedg|eaag adga|bg~g2 agef|gedc BG~G2|
dggf gedg|eaag a2ga|bg~g2 agef|1gedc BGBd:|2gaba gedc||

